!!!COM: Music21
!!!OTL: Pasodoble dos Fosados
!!!OMV: pezas_pasodobles_pasodoble-dos-fosados_pasodoble-dos-fosados-partitura.musicxml
**kern
*part1
*staff1
*I"Gaita
*I'Bag
*clefG^2
*k[b-]
*M2/4
*MM125
=1
!LO:TX:a:t=[quarter]=125
4r
16ffLL
16gg
16ff
16eeJJ
=||
16ffLL
16gg
16ff
16eeJJ
16ffLL
16gg
16aa
16bb-JJ
=
8aaL
8ggJ
8ffL
8aaJ
=
8ggL
8ffJ
8eeL
8ggJ
=
24ggLL
24aa
24ggJ
8ffJ
16ffLL
16gg
16ff
16eeJJ
=
16ffLL
16gg
16ff
16eeJJ
16ffLL
16gg
16aa
16bb-JJ
!!linebreak:original
=
8aaL
8ggJ
8ffL
8aaJ
=
8ggL
8ffJ
8eeL
8ggJ
=
4aa
16ffLL
16gg
16ff
16eeJJ
=||
16ffLL
16gg
16ff
16eeJJ
16ffLL
16gg
16aa
16bb-JJ
=
8aaL
8ggJ
8ffL
8aaJ
=
8ggL
8ffJ
8eeL
8ggJ
=
24ggLL
24aa
24ggJ
8ffJ
16ffLL
16gg
16ff
16eeJJ
!!linebreak:original
=
16ffLL
16gg
16ff
16eeJJ
16ffLL
16gg
16aa
16bb-JJ
=
8aaL
8ggJ
8ffL
8aaJ
=
8ggL
8ffJ
8eeL
8ggJ
=
[2ff
=
8ffL]
8ffJ
8ffL
8eeJ
=||
8.ggL
16ffJk
8eeL
8ffJ
=
8ggL
8ggJ
8ggL
8ffJ
=
8.aaL
16ggJk
8ffL
8ggJ
!!linebreak:original
=
8aaL
8aaJ
8aaL
8ggJ
=
8.bb-L
16aaJk
8ggL
8ffJ
=
4gg
8cccL
8bb-J
=
8.aaL
16ggJk
8ffL
8ggJ
=
8aaL
8ffJ
8ffL
8eeJ
=
8.ggL
16ffJk
8eeL
8ffJ
=
8ggL
8ggJ
8ggL
8ffJ
=
8.aaL
16ggJk
8ffL
8ggJ
!!linebreak:original
=
8aaL
8aaJ
8aaL
8ggJ
=
8.bb-L
16aaJk
8ggL
8ffJ
=
8eeL
8ccJ
8ddL
8eeJ
=
[2ff
=
8ffL]
8ffJ
8ffL
8eeJ
=||
8.ggL
16ffJk
8eeL
8ffJ
=
8ggL
8ggJ
8ggL
8ffJ
=
8.aaL
16ggJk
8ffL
8ggJ
=
8aaL
8aaJ
8aaL
8ggJ
!!pagebreak:original
=
8.bb-L
16aaJk
8ggL
8ffJ
=
4gg
8cccL
8bb-J
=
8.aaL
16ggJk
8ffL
8ggJ
=
8aaL
8ffJ
8ffL
8eeJ
=
8.ggL
16ffJk
8eeL
8ffJ
=
8ggL
8ggJ
8ggL
8ffJ
=
8.aaL
16ggJk
8ffL
8ggJ
=
8aaL
8aaJ
8aaL
8ggJ
!!linebreak:original
=
8.bb-L
16aaJk
8ggL
8ffJ
=
8eeL
8ccJ
8ddL
8eeJ
=
[2ff
=||
*M6/8
*MM187.5
!LO:TX:a:t=[quarter-dot]=125
4.ff]
8ccL
8dd
8eeJ
=||
8ffL
8ee
8ffJ
8ggL
8ff
8ggJ
=
4aa
8ff
8aaL
8aa-X
8ggJ
=
8ffL
8ee
8ffJ
8bb-L
8aa
8ggJ
!!linebreak:original
=
4aa
8ff
8ccL
8dd
8eeJ
=
8ffL
8ee
8ffJ
8ggL
8ff
8ggJ
=
4aa
8ff
8ggL
8ccc
8eeJ
=
8ggL
8ccc
8eeJ
8ffL
8gg
8bb-J
=
4aa
8bb-
[4.ccc
=
4.ccc]
8ccL
8dd
8eeJ
=||
8ffL
8ee
8ffJ
8ggL
8ff
8ggJ
!!linebreak:original
=
4aa
8ff
8aaL
8aa-X
8ggJ
=
8ffL
8ee
8ffJ
8bb-L
8aa
8ggJ
=
4aa
8ff
8ccL
8dd
8eeJ
=
8ffL
8ee
8ffJ
8ggL
8ff
8ggJ
=
4aa
8ff
8ggL
8ccc
8eeJ
=
8ggL
8ccc
8eeJ
8ffL
8gg
8bb-J
!!linebreak:original
=||
4aa
8gg
[4.ff
=||
*M2/4
*MM125
!LO:TX:a:t=[quarter]=125
4ff]
16ffLL
16gg
16ff
16eeJJ
=||
*M6/8
*MM187.5
!LO:TX:a:t=[quarter-dot]=125
4aa
8gg
[4.ff
=
4.ff_
4.ff]
==
*-
!!!system-decoration: s1,s2
